ufans-frontend-package/public/assets/images/feed-story/heart-outline.svg

<svg width="123" height="108" viewBox="0 0 123 108" fill="none" xmlns="http://www.w3.org/2000/svg">
<g clip-path="url(#clip0_1422_21)">
<path d="M61.43 13.5315C66.76 7.51152 72.8 3.69152 78.96 1.69152C85.44 -0.40848 92.03 -0.45848 98.05 1.09152C104.1 2.64152 109.57 5.81152 113.79 10.1215C119.37 15.8215 122.88 23.4815 122.88 32.1415C122.88 45.8415 116.28 58.8915 105.46 71.5115C95.32 83.3415 81.41 94.8615 65.85 106.242C63.27 108.132 59.87 108.122 57.35 106.462V106.472L57.32 106.452V106.462L57.3 106.452L57.09 106.302C52.63 103.382 48.34 100.392 44.29 97.3615C40.24 94.3315 36.28 91.1415 32.46 87.8015C12.58 70.4215 0 51.4015 0 32.1315C0 23.3315 3.44 15.6915 8.93 10.0515C13.18 5.68152 18.66 2.54152 24.72 1.02152V1.02152C30.71 -0.47848 37.29 -0.37848 43.77 1.71152C49.99 3.71152 56.09 7.54152 61.43 13.5315ZM83.51 15.8715C78.02 17.6515 72.51 22.0215 68 29.7815C67.37 30.9715 66.4 31.9915 65.15 32.7115C61.59 34.7615 57.04 33.5315 55 29.9715C50.5 22.1515 44.86 17.7015 39.22 15.8915C35.51 14.7015 31.76 14.6415 28.34 15.4915H28.32C24.97 16.3215 21.95 18.0515 19.62 20.4415C16.75 23.3915 14.95 27.4415 14.95 32.1415C14.95 46.6715 25.54 61.9615 42.25 76.5715C45.53 79.4415 49.2 82.3915 53.2 85.3815C55.81 87.3415 58.55 89.3015 61.24 91.1215C74.27 81.3615 85.77 71.5915 94.14 61.8215C102.72 51.8215 107.94 41.9015 107.94 32.1415C107.94 27.5915 106.1 23.5615 103.18 20.5715C100.8 18.1515 97.75 16.3715 94.38 15.5115C90.98 14.6315 87.23 14.6715 83.51 15.8715Z" fill="#D90077"/>
</g>
<defs>
<clipPath id="clip0_1422_21">
<rect width="122.88" height="107.68" fill="white"/>
</clipPath>
</defs>
</svg>

<svg xmlns="http://www.w3.org/2000/svg" xmlns:xlink="http://www.w3.org/1999/xlink" width="122.88" height="107.68" viewBox="0 0 122.88 107.68">
  <defs>
    <clipPath id="clip-path">
      <rect id="Rectangle_1" data-name="Rectangle 1" width="122.88" height="107.68" fill="#e44499"/>
    </clipPath>
  </defs>
  <g id="heart-outline" clip-path="url(#clip-path)">
    <path id="Path_1" data-name="Path 1" d="M61.43,13.531A39.891,39.891,0,0,1,78.96,1.692a34.154,34.154,0,0,1,34.83,8.43,31.256,31.256,0,0,1,9.09,22.02c0,13.7-6.6,26.75-17.42,39.37-10.14,11.83-24.05,23.35-39.61,34.73a7.458,7.458,0,0,1-8.5.22v.01l-.03-.02v.01l-.02-.01-.21-.15c-4.46-2.92-8.75-5.91-12.8-8.94s-8.01-6.22-11.83-9.56C12.58,70.422,0,51.4,0,32.132a31.293,31.293,0,0,1,8.93-22.08,33.333,33.333,0,0,1,15.79-9.03h0a34.58,34.58,0,0,1,19.05.69A40.166,40.166,0,0,1,61.43,13.531Zm22.08,2.34c-5.49,1.78-11,6.15-15.51,13.91a7.44,7.44,0,0,1-13,.19c-4.5-7.82-10.14-12.27-15.78-14.08a19.852,19.852,0,0,0-10.88-.4h-.02a18.3,18.3,0,0,0-8.7,4.95,16.566,16.566,0,0,0-4.67,11.7c0,14.53,10.59,29.82,27.3,44.43,3.28,2.87,6.95,5.82,10.95,8.81,2.61,1.96,5.35,3.92,8.04,5.74,13.03-9.76,24.53-19.53,32.9-29.3,8.58-10,13.8-19.92,13.8-29.68a16.451,16.451,0,0,0-4.76-11.57,18.953,18.953,0,0,0-8.8-5.06A19.438,19.438,0,0,0,83.51,15.872Z" fill="#e44499"/>
  </g>
</svg>
